data/resources/images/trophy-icon-gray.svg

<svg viewBox="0 0 113.48 122.88" xmlns="http://www.w3.org/2000/svg"><path d="m3.21 18.74h16.65q0-4 .06-8.26v-10.48h73.13v10.49 8.26h17.24a3.08 3.08 0 0 1 3.07 2.93 77.67 77.67 0 0 1 -.4 13.9 34 34 0 0 1 -3.85 12.42 21.77 21.77 0 0 1 -8.8 8.6 31.91 31.91 0 0 1 -13.9 3.4c-3.27 5.43-7.63 8-12.73 12.67-6.17 4.71-10.81 8.26-7.2 19.13h5.39a7.84 7.84 0 0 1 7.82 7.82v3.15h.77a7.69 7.69 0 0 1 5.45 2.23 7.67 7.67 0 0 1 2.26 5.45v5.23a1.77 1.77 0 0 1 -1.77 1.77h-59.82a1.77 1.77 0 0 1 -1.77-1.77v-5.23a7.66 7.66 0 0 1 2.26-5.45 7.66 7.66 0 0 1 5.44-2.26h.77v-3.12a7.75 7.75 0 0 1 2.3-5.51 7.81 7.81 0 0 1 5.51-2.29h6.06c3.22-10.26-1-13.58-6.83-18.17a44.47 44.47 0 0 1 -12.98-13.65 31.87 31.87 0 0 1 -14.34-3.46 21.47 21.47 0 0 1 -8.73-8.6 34.07 34.07 0 0 1 -3.76-12.36 78.1 78.1 0 0 1 -.38-13.68v-.08a3.08 3.08 0 0 1 3.09-3.08zm89.5 11.26a121.67 121.67 0 0 1 -2 18 15.17 15.17 0 0 0 5-1.9 10.49 10.49 0 0 0 3.69-3.89 18 18 0 0 0 1.93-6 45.37 45.37 0 0 0 .5-6.25h-9.12zm-72.59 0h-8.12a49.78 49.78 0 0 0 .45 6.27 18.41 18.41 0 0 0 1.8 6 10.13 10.13 0 0 0 3.57 3.88 14.57 14.57 0 0 0 4.72 1.85 92 92 0 0 1 -2.42-18z" fill="#808080"/><path d="m20.08 21.82h-16.87c-.46 9.28.13 18.18 3.79 24.61 3.43 6.11 9.7 10.15 20.62 10.46a27.9 27.9 0 0 1 -3.48-5.51c-6.56-.88-10.36-3.59-12.54-7.67s-2.66-9.39-2.66-15.57a1.23 1.23 0 0 1 1.23-1.23h9.91zm72.77 5.1h10.82a1.23 1.23 0 0 1 1.23 1.22c0 6.2-.56 11.54-2.84 15.6s-6.16 6.75-12.7 7.64a25.38 25.38 0 0 1 -3.69 5.52c11-.29 17.29-4.33 20.77-10.45 3.67-6.47 4.29-15.34 3.84-24.62h-17.43z" fill="#a0a0a0"/><path d="m79.69 102.76h.77a7.69 7.69 0 0 1 5.45 2.24 7.67 7.67 0 0 1 2.26 5.45v10.63a1.77 1.77 0 0 1 -1.77 1.77h-59.82a1.77 1.77 0 0 1 -1.77-1.77v-10.6a7.66 7.66 0 0 1 2.26-5.48 7.66 7.66 0 0 1 5.44-2.26h47.18z" fill="#222"/><path d="m70.64 108h-34.92a4.22 4.22 0 0 0 -3 1.25 4.26 4.26 0 0 0 -1.25 3v5.28h50.08v-5.28a4.26 4.26 0 0 0 -1.26-3 4.31 4.31 0 0 0 -3-1.26z" fill="#c0c0c0"/><path d="m50.71 93h6v-17.79c-22.17-7.88-24.26-35-29.55-72.57h-4.63v26.77c.47 10.19 2.15 17.73 4.47 23.5a38.19 38.19 0 0 0 8.39 12.8 68.65 68.65 0 0 0 6.71 5.78c7.01 5.51 12.09 9.51 8.61 21.51z" fill="#909090"/><path d="m56.71 93h6.29c-3.88-12.71 1.68-17 9-22.55 8.05-6.14 18.5-14.12 18.5-40.35v-27.46h-63.34c3.42 24.28 5.5 44.17 12.51 57.36a39.14 39.14 0 0 0 9.33 11.13 29.3 29.3 0 0 0 5.47 3.17 19.1 19.1 0 0 0 2.21.74v.15h.07v17.81z" fill="#b0b0b0"/></svg>

<svg id="Layer_1" data-name="Layer 1" xmlns="http://www.w3.org/2000/svg" viewBox="0 0 113.48 122.88">
	<!-- https://uxwing.com/wp-content/themes/uxwing/download/sport-and-awards/trophy-icon.png -->
	<title>trophy</title>
	<path style="fill:#808080;" d="M3.21,18.74H19.86q0-4,.06-8.26V0H93.05V10.49c0,2.92,0,5.66,0,8.26h17.24a3.08,3.08,0,0,1,3.07,2.93,77.67,77.67,0,0,1-.4,13.9A34,34,0,0,1,109.11,48a21.77,21.77,0,0,1-8.8,8.6A31.91,31.91,0,0,1,86.41,60C83.14,65.43,78.78,68,73.68,72.67c-6.17,4.71-10.81,8.26-7.2,19.13h5.39a7.84,7.84,0,0,1,7.82,7.82v3.15h.77A7.69,7.69,0,0,1,85.91,105h0a7.67,7.67,0,0,1,2.26,5.45v5.23a1.77,1.77,0,0,1-1.77,1.77H26.58a1.77,1.77,0,0,1-1.77-1.77v-5.23A7.66,7.66,0,0,1,27.07,105h0a7.66,7.66,0,0,1,5.44-2.26h.77V99.62a7.75,7.75,0,0,1,2.3-5.51v0a7.81,7.81,0,0,1,5.51-2.29h6.06c3.22-10.26-1-13.58-6.83-18.17A44.47,44.47,0,0,1,27.34,60,31.87,31.87,0,0,1,13,56.54a21.47,21.47,0,0,1-8.73-8.6A34.07,34.07,0,0,1,.51,35.58,78.1,78.1,0,0,1,.13,21.9v-.08a3.08,3.08,0,0,1,3.09-3.08ZM92.71,30a121.67,121.67,0,0,1-2,18,15.17,15.17,0,0,0,5-1.9,10.49,10.49,0,0,0,3.69-3.89,18,18,0,0,0,1.93-6,45.37,45.37,0,0,0,.5-6.25H92.71ZM20.12,30H12a49.78,49.78,0,0,0,.45,6.27,18.41,18.41,0,0,0,1.8,6,10.13,10.13,0,0,0,3.57,3.88A14.57,14.57,0,0,0,22.54,48a92,92,0,0,1-2.42-18Z"/>
	<path style="fill:#A0A0A0;" d="M20.08,21.82H3.21C2.75,31.1,3.34,40,7,46.43c3.43,6.11,9.7,10.15,20.62,10.46a27.9,27.9,0,0,1-3.48-5.51c-6.56-.88-10.36-3.59-12.54-7.67S8.94,34.32,8.94,28.14a1.23,1.23,0,0,1,1.23-1.23h9.91V21.82Zm72.77,5.1h10.82a1.23,1.23,0,0,1,1.23,1.22c0,6.2-.56,11.54-2.84,15.6s-6.16,6.75-12.7,7.64a25.38,25.38,0,0,1-3.69,5.52c11-.29,17.29-4.33,20.77-10.45,3.67-6.47,4.29-15.34,3.84-24.62H92.85v5.09Z"/>
	<path style="fill:#222;" d="M79.69,102.76h.77A7.69,7.69,0,0,1,85.91,105h0a7.67,7.67,0,0,1,2.26,5.45v10.63a1.77,1.77,0,0,1-1.77,1.77H26.58a1.77,1.77,0,0,1-1.77-1.77V110.48A7.66,7.66,0,0,1,27.07,105h0a7.66,7.66,0,0,1,5.44-2.26H79.69Z"/>
	<path style="fill:#C0C0C0;" d="M70.64,108H35.72a4.22,4.22,0,0,0-3,1.25h0a4.26,4.26,0,0,0-1.25,3v5.28H81.55v-5.28a4.26,4.26,0,0,0-1.26-3,4.31,4.31,0,0,0-3-1.26Z"/>
	<path style="fill:#909090;" d="M50.71,93h6V75.21c-22.17-7.88-24.26-35-29.55-72.57H22.53V29.41C23,39.6,24.68,47.14,27,52.91a38.19,38.19,0,0,0,8.39,12.8,68.65,68.65,0,0,0,6.71,5.78C49.11,77,54.19,81,50.71,93Z"/>
	<path style="fill:#B0B0B0;" d="M56.71,93H63c-3.88-12.71,1.68-17,9-22.55,8.05-6.14,18.5-14.12,18.5-40.35V2.64H27.16C30.58,26.92,32.66,46.81,39.67,60A39.14,39.14,0,0,0,49,71.13a29.3,29.3,0,0,0,5.47,3.17,19.1,19.1,0,0,0,2.21.74v.15l.07,0V93Z"/>
</svg>
